X:1
T:The Bells of Hell
M:2/4
L:1/8
K:G
 d| Bd BG| D/2D/2 D/2D/2 DG| DG DG| F3| d/2d/2| cd cA| D/2D/2 D/2D/2 DA|\
 DA DA| B3| d| Bd BG| D/2D/2 D/2D/2 DG| FG AB| c2 ^c2| dd d=c| B/2B/2 B/2B/2 BG|\
 AG EF| G3||
